X: 166
T:The Black Duck Brook French Center Waltz
R:waltz
C:Emile Benoit
M:3/4
L:1/8
Z:Gerry Strong
K:D
FG|:A2 d3 c|B2 E2 EF|G2 GA Bd|A2 D2 DE|F3 F EF|E2 A,2 EF|G2 F2 E2|1A4 FG
:|2D4 FG||!
A2 d3 e|f2 d2 F2|G3 A GF|E2 A,2 CB,|A,2 C2 E2|c2 B2 A2|B2 A3 G|F3 G FE|D
2 DF Ad|f2 d2 F2|G3 A GF|E2A,2 CB,|A,2C2E2|c2B2A2|G2F2E2|D6||

